public/svg/globe.svg

<svg enable-background="new 0 0 508 508" viewBox="0 0 508 508" xmlns="http://www.w3.org/2000/svg"><path d="m256.1 8.1c-103.7 0-245.6 78.4-245.6 245.6 0 163 136.5 245.6 245.6 245.6 187.3 0 245.6-164.1 245.6-245.6.1-120.3-92-245.6-245.6-245.6zm-56.9 23.1c-25.6 21.9-46.9 58-60.6 102.9-17.8-10.5-34.1-23.6-48.6-38.8 29.9-31.4 67.8-53.5 109.2-64.1zm-119.9 75.9c16.2 16.9 34.7 31.3 54.8 42.7-7.5 29.3-12 61.8-12.6 95.9h-95c1.8-50.9 20.3-99.5 52.8-138.6zm0 293.2c-32.6-39.1-51.1-87.7-52.8-138.7h95.1c.6 34.2 5 66.6 12.6 95.9-20.1 11.6-38.5 25.9-54.9 42.8zm10.6 11.9c14.5-15.2 30.9-28.2 48.6-38.8 13.7 44.8 35 81 60.6 102.9-41.3-10.7-79.2-32.7-109.2-64.1zm158.3 70.7c-41.2-5.2-76.7-51.3-95.8-117.2 29.6-15 62.3-23.4 95.8-24.7zm0-157.6c-35 1.2-69.1 9.8-99.9 24.9-6.5-27.1-10.3-57-10.9-88.5h110.8zm0-79.5h-110.8c.6-31.5 4.4-61.4 10.9-88.5 30.9 15.1 65 23.7 99.9 24.9zm0-79.4c-33.7-1.2-66.2-9.7-95.8-24.7 19.1-66.1 54.6-112 95.8-117.2zm184.7-59.3c32.5 39.1 51.1 87.7 52.8 138.7h-95c-.6-34.2-5-66.6-12.6-95.9 20.1-11.6 38.6-25.9 54.8-42.8zm-10.5-11.9c-14.5 15.2-30.9 28.2-48.6 38.8-13.8-44.8-35.1-81-60.7-102.9 41.4 10.7 79.3 32.8 109.3 64.1zm-158.3-70.7c41.2 5.2 76.7 51.3 95.8 117.2-29.6 15-62.2 23.4-95.8 24.7zm0 157.7c35-1.2 69.1-9.8 99.9-24.9 6.5 27.1 10.3 57 10.9 88.5h-110.8zm0 79.4h110.8c-.6 31.5-4.4 61.4-10.9 88.5-30.9-15.2-64.9-23.8-99.9-24.9zm0 221.3v-141.9c33.7 1.2 66.2 9.7 95.8 24.7-19.2 66.1-54.7 112-95.8 117.2zm49-6.7c25.6-21.9 46.9-58 60.6-102.9 17.8 10.5 34.1 23.6 48.6 38.8-29.9 31.5-67.8 53.5-109.2 64.1zm119.8-75.9c-16.2-16.9-34.7-31.2-54.7-42.7 7.5-29.3 12-61.8 12.6-95.9h95c-1.8 50.9-20.4 99.6-52.9 138.6z" fill="#fff" stroke="#fff" stroke-miterlimit="10" stroke-width="3"/></svg>

<?xml version="1.0" encoding="utf-8"?>
<!-- Generator: Adobe Illustrator 24.0.3, SVG Export Plug-In . SVG Version: 6.00 Build 0)  -->
<svg version="1.1" id="Capa_1" xmlns="http://www.w3.org/2000/svg" xmlns:xlink="http://www.w3.org/1999/xlink" x="0px" y="0px"
	 viewBox="0 0 508 508" style="enable-background:new 0 0 508 508;" xml:space="preserve">
<style type="text/css">
	.st0{fill:#FFFFFF;stroke:#FFFFFF;stroke-width:3;stroke-miterlimit:10;}
</style>
<g>
	<g>
		<path class="st0" d="M256.1,8.1C152.4,8.1,10.5,86.5,10.5,253.7c0,163,136.5,245.6,245.6,245.6c187.3,0,245.6-164.1,245.6-245.6
			C501.8,133.4,409.7,8.1,256.1,8.1z M199.2,31.2c-25.6,21.9-46.9,58-60.6,102.9c-17.8-10.5-34.1-23.6-48.6-38.8
			C119.9,63.9,157.8,41.8,199.2,31.2z M79.3,107.1c16.2,16.9,34.7,31.3,54.8,42.7c-7.5,29.3-12,61.8-12.6,95.9h-95
			C28.3,194.8,46.8,146.2,79.3,107.1z M79.3,400.3c-32.6-39.1-51.1-87.7-52.8-138.7h95.1c0.6,34.2,5,66.6,12.6,95.9
			C114.1,369.1,95.7,383.4,79.3,400.3z M89.9,412.2c14.5-15.2,30.9-28.2,48.6-38.8c13.7,44.8,35,81,60.6,102.9
			C157.8,465.6,119.9,443.6,89.9,412.2z M248.2,482.9c-41.2-5.2-76.7-51.3-95.8-117.2c29.6-15,62.3-23.4,95.8-24.7V482.9
			L248.2,482.9z M248.2,325.3c-35,1.2-69.1,9.8-99.9,24.9c-6.5-27.1-10.3-57-10.9-88.5h110.8V325.3L248.2,325.3z M248.2,245.8H137.4
			c0.6-31.5,4.4-61.4,10.9-88.5c30.9,15.1,65,23.7,99.9,24.9L248.2,245.8L248.2,245.8z M248.2,166.4c-33.7-1.2-66.2-9.7-95.8-24.7
			c19.1-66.1,54.6-112,95.8-117.2V166.4z M432.9,107.1c32.5,39.1,51.1,87.7,52.8,138.7h-95c-0.6-34.2-5-66.6-12.6-95.9
			C398.2,138.3,416.7,124,432.9,107.1z M422.4,95.2c-14.5,15.2-30.9,28.2-48.6,38.8C360,89.2,338.7,53,313.1,31.1
			C354.5,41.8,392.4,63.9,422.4,95.2z M264.1,24.5c41.2,5.2,76.7,51.3,95.8,117.2c-29.6,15-62.2,23.4-95.8,24.7L264.1,24.5
			L264.1,24.5z M264.1,182.2c35-1.2,69.1-9.8,99.9-24.9c6.5,27.1,10.3,57,10.9,88.5H264.1V182.2z M264.1,261.6h110.8
			c-0.6,31.5-4.4,61.4-10.9,88.5c-30.9-15.2-64.9-23.8-99.9-24.9L264.1,261.6L264.1,261.6z M264.1,482.9V341
			c33.7,1.2,66.2,9.7,95.8,24.7C340.7,431.8,305.2,477.7,264.1,482.9z M313.1,476.2c25.6-21.9,46.9-58,60.6-102.9
			c17.8,10.5,34.1,23.6,48.6,38.8C392.4,443.6,354.5,465.6,313.1,476.2z M432.9,400.3c-16.2-16.9-34.7-31.2-54.7-42.7
			c7.5-29.3,12-61.8,12.6-95.9h95C484,312.6,465.4,361.3,432.9,400.3z"/>
	</g>
</g>
</svg>
